svgs/sharp-solid/send-backward.svg

<svg xmlns="http://www.w3.org/2000/svg" viewBox="0 0 512 512"><!--! Font Awesome Pro 6.6.0 by @fontawesome - https://fontawesome.com License - https://fontawesome.com/license (Commercial License) Copyright 2024 Fonticons, Inc. --><path d="M352 0L0 0 0 352l128 0 0-192 0-32 32 0 192 0L352 0zM224 224l224 0 0 224-224 0 0-224zm-64-64l0 64 0 224 0 64 64 0 224 0 64 0 0-64 0-224 0-64-64 0-224 0-64 0z"/></svg>

<svg xmlns="http://www.w3.org/2000/svg" viewBox="0 0 512 512"><!--! Font Awesome Pro 6.4.2 by @fontawesome - https://fontawesome.com License - https://fontawesome.com/license (Commercial License) Copyright 2023 Fonticons, Inc. --><path d="M352 0H0V352H128V160 128h32H352V0zM224 224H448V448H224V224zm-64-64v64V448v64h64H448h64V448 224 160H448 224 160z"/></svg>
